ubersicht/widgets/weather.widget/lib/icons/lightning.svg

<svg xmlns="http://www.w3.org/2000/svg" xml:space="preserve" style="fill-rule:evenodd;clip-rule:evenodd;stroke-linecap:round;stroke-linejoin:round;stroke-miterlimit:1.5" viewBox="0 0 200 200">
    <path d="M-2363.772-1183.816h3426.96v2296.67h-3426.96z"/>
    <g transform="matrix(1.02577 0 0 1.47613 -21.4 -42.573)">
        <path d="M20.856 28.841h194.975v135.49H20.856z" style="fill:none"/>
        <clipPath id="a">
            <path d="M20.856 28.841h194.975v135.49H20.856z"/>
        </clipPath>
        <g clip-path="url(#a)">
            <path d="M63.898 81.788c4.065-9.157 12.913-22.072 35.197-20.761 27.803 1.635 36.027 20.475 38.83 30.639 7.145.151 19.243 1.289 27.167 9.718 5.218 5.551 9.131 13.987 8.824 27.031-.294 12.469-11.774 26.563-24.142 29.85-3.772 1.003-2.046.815-8.001 1.59.463-1.8 1.281-4.159 1.323-5.929.063-2.661-.104-4.853-.368-7.146 3.566-.821.539-.25 3.223-.716 3.867-.671 15.3-11.324 15.478-18.879.198-8.413-2.686-13.088-6.052-16.668-7.815-8.314-14.76-6.575-20.145-6.735-1.997-.06-7.05-.045-7.05-.045s-.422-3.737-.577-5.581c0 0-2.997-23.542-29.046-25.074-11.026-.648-14.599 1.652-22.365 11.348-3.532-1.081-7.789-2.357-12.296-2.642" style="fill:#fff" transform="matrix(1.01377 0 0 .70447 32.55 -6.346)"/>
            <path d="M59.694 92.473c2.238-10.8 13.266-32.983 39.401-31.446 27.803 1.635 36.027 20.475 38.83 30.639 7.145.151 19.243 1.289 27.167 9.718 5.218 5.551 9.131 13.987 8.824 27.031-.294 12.469-11.774 26.563-24.142 29.85-9.87 2.623-28.724 1.291-47.131.936-16.87-.325-33.365.48-42.224-.621-8.593-1.069-17.961-8.497-21.796-14.136-3.991-5.87-5.19-12.478-5.178-18.679.022-10.397 3.434-16.557 7.253-21.658 5.878-7.852 13.634-10.551 18.996-11.634m10.18 10.227c-7.902 1.07-13.874 1.4-19.208 8.526-2.468 3.297-4.633 7.931-4.647 14.651a20 20 0 0 0 3.426 11.166c2.429 3.574 8.09 8.711 13.527 9.226 7.742.733 23.272.409 39.359.564 17.324.166 35.095.906 43.62-.769 8.02-1.576 15.3-11.324 15.478-18.879.198-8.413-2.686-13.088-6.052-16.668-7.815-8.314-14.76-6.575-20.145-6.735-1.997-.06-7.05-.045-7.05-.045s-.422-3.737-.577-5.581c0 0-2.997-23.542-29.046-25.074-11.026-.648-18.547 5.237-22.365 11.348-4.146 6.636-3.834 6.406-4.887 9.451-.974 2.814-.948 6.219-1.433 8.819" style="fill:#fff" transform="matrix(1.01377 0 0 .70447 -6.095 11.99)"/>
            <path d="m409.494 453.921-14.478 43.641" style="fill:none;stroke:#0d00ff;stroke-width:7.06px" transform="matrix(.94817 -.00136 .16461 .46968 -346.412 -74.285)"/>
            <path d="m409.494 453.921-14.478 43.641" style="fill:none;stroke:#0d00ff;stroke-width:7.06px" transform="matrix(.94817 -.00136 .16461 .46968 -393.395 -84.543)"/>
            <path d="m409.494 453.921-14.478 43.641" style="fill:none;stroke:#0d00ff;stroke-width:7.06px" transform="matrix(.94817 -.00136 .16461 .46968 -359.814 -84.543)"/>
            <path d="m409.494 453.921-14.478 43.641" style="fill:none;stroke:#0d00ff;stroke-width:7.06px" transform="matrix(.94817 -.00136 .16461 .46968 -287.011 -94.801)"/>
            <path d="m409.494 453.921-14.478 43.641" style="fill:none;stroke:#0d00ff;stroke-width:7.35px" transform="matrix(.92576 .0689 .23216 .25792 -291.475 -27.45)"/>
            <path d="M164.003 153.223c2.217-.069 9.95-.098 12.131-.018.358.013.691.253.952.498.278.261.586.714.714 1.067.119.331.051 1.055.051 1.055l-6.375 9.877s2.89.026 3.668.111c.359.04.727.173 1.006.403.287.237.607.622.722 1.023.118.409.212 1.01-.017 1.426-.968 1.761-5.79 9.139-5.79 9.139s2.518-.055 3.23.036c.385.049.762.245 1.046.509.288.269.613.677.685 1.104.077.457.144 1.226-.224 1.636-3.149 3.511-15.34 16.127-18.67 19.432-.324.321-.889.488-1.31.399s-.997-.608-1.22-.935a1.16 1.16 0 0 1-.119-1.027c.948-2.385 5.806-13.281 5.806-13.281s-1.677-.094-2.325-.152c-.522-.048-1.141.021-1.56-.2-.42-.222-.808-.705-.958-1.13s-.147-.994.057-1.423c.714-1.503 4.226-7.598 4.226-7.598s-2.971-.046-3.959-.089c-.658-.028-1.467.059-1.968-.169-.482-.219-.879-.765-1.041-1.198a1.86 1.86 0 0 1 .069-1.396c1.526-3.199 7.422-14.683 9.089-17.8.202-.378.568-.687.915-.903.347-.217.758-.383 1.169-.396" style="fill:#ffe600" transform="matrix(.61656 0 0 .67745 -19.534 28.202)"/>
            <path d="M164.003 153.223c2.217-.069 9.95-.098 12.131-.018.358.013.691.253.952.498.278.261.586.714.714 1.067.119.331.051 1.055.051 1.055l-6.375 9.877s2.89.026 3.668.111c.359.04.727.173 1.006.403.287.237.607.622.722 1.023.118.409.212 1.01-.017 1.426-.968 1.761-5.79 9.139-5.79 9.139s2.518-.055 3.23.036c.385.049.762.245 1.046.509.288.269.613.677.685 1.104.077.457.144 1.226-.224 1.636-3.149 3.511-15.34 16.127-18.67 19.432-.324.321-.889.488-1.31.399s-.997-.608-1.22-.935a1.16 1.16 0 0 1-.119-1.027c.948-2.385 5.806-13.281 5.806-13.281s-1.677-.094-2.325-.152c-.522-.048-1.141.021-1.56-.2-.42-.222-.808-.705-.958-1.13s-.147-.994.057-1.423c.714-1.503 4.226-7.598 4.226-7.598s-2.971-.046-3.959-.089c-.658-.028-1.467.059-1.968-.169-.482-.219-.879-.765-1.041-1.198a1.86 1.86 0 0 1 .069-1.396c1.526-3.199 7.422-14.683 9.089-17.8.202-.378.568-.687.915-.903.347-.217.758-.383 1.169-.396" style="fill:#ffe600" transform="matrix(.61656 0 0 .67745 41.261 22.744)"/>
        </g>
    </g>
</svg>

<?xml version="1.0" encoding="UTF-8" standalone="no"?>
<!DOCTYPE svg PUBLIC "-//W3C//DTD SVG 1.1//EN" "http://www.w3.org/Graphics/SVG/1.1/DTD/svg11.dtd">
<svg width="100%" height="100%" viewBox="0 0 200 200" version="1.1" xmlns="http://www.w3.org/2000/svg" xmlns:xlink="http://www.w3.org/1999/xlink" xml:space="preserve" xmlns:serif="http://www.serif.com/" style="fill-rule:evenodd;clip-rule:evenodd;stroke-linecap:round;stroke-linejoin:round;stroke-miterlimit:1.5;">
    <g transform="matrix(1,0,0,1,-1599.04,-270.959)">
        <g transform="matrix(1,0,0,1,292.408,-172.397)">
            <rect x="-1057.14" y="-740.46" width="3426.96" height="2296.67"/>
        </g>
        <g id="Lightning" transform="matrix(1.02577,0,0,1.47613,1577.64,228.386)">
            <rect x="20.856" y="28.841" width="194.975" height="135.49" style="fill:none;"/>
            <clipPath id="_clip1">
                <rect x="20.856" y="28.841" width="194.975" height="135.49"/>
            </clipPath>
            <g clip-path="url(#_clip1)">
                <g transform="matrix(1.01377,0,0,0.704474,32.5499,-6.3455)">
                    <path d="M63.898,81.788C67.963,72.631 76.811,59.716 99.095,61.027C126.898,62.662 135.122,81.502 137.925,91.666C145.07,91.817 157.168,92.955 165.092,101.384C170.31,106.935 174.223,115.371 173.916,128.415C173.622,140.884 162.142,154.978 149.774,158.265C146.002,159.268 147.728,159.08 141.773,159.855C142.236,158.055 143.054,155.696 143.096,153.926C143.159,151.265 142.992,149.073 142.728,146.78C146.294,145.959 143.267,146.53 145.951,146.064C149.818,145.393 161.251,134.74 161.429,127.185C161.627,118.772 158.743,114.097 155.377,110.517C147.562,102.203 140.617,103.942 135.232,103.782C133.235,103.722 128.182,103.737 128.182,103.737C128.182,103.737 127.76,100 127.605,98.156C127.605,98.156 124.608,74.614 98.559,73.082C87.533,72.434 83.96,74.734 76.194,84.43C72.662,83.349 68.405,82.073 63.898,81.788Z" style="fill:white;"/>
                </g>
                <g transform="matrix(1.01377,0,0,0.704474,-6.09531,11.99)">
                    <path d="M59.694,92.473C61.932,81.673 72.96,59.49 99.095,61.027C126.898,62.662 135.122,81.502 137.925,91.666C145.07,91.817 157.168,92.955 165.092,101.384C170.31,106.935 174.223,115.371 173.916,128.415C173.622,140.884 162.142,154.978 149.774,158.265C139.904,160.888 121.05,159.556 102.643,159.201C85.773,158.876 69.278,159.681 60.419,158.58C51.826,157.511 42.458,150.083 38.623,144.444C34.632,138.574 33.433,131.966 33.445,125.765C33.467,115.368 36.879,109.208 40.698,104.107C46.576,96.255 54.332,93.556 59.694,92.473ZM69.874,102.7C61.972,103.77 56,104.1 50.666,111.226C48.198,114.523 46.033,119.157 46.019,125.877C46.011,129.547 47.082,133.569 49.445,137.043C51.874,140.617 57.535,145.754 62.972,146.269C70.714,147.002 86.244,146.678 102.331,146.833C119.655,146.999 137.426,147.739 145.951,146.064C153.971,144.488 161.251,134.74 161.429,127.185C161.627,118.772 158.743,114.097 155.377,110.517C147.562,102.203 140.617,103.942 135.232,103.782C133.235,103.722 128.182,103.737 128.182,103.737C128.182,103.737 127.76,100 127.605,98.156C127.605,98.156 124.608,74.614 98.559,73.082C87.533,72.434 80.012,78.319 76.194,84.43C72.048,91.066 72.36,90.836 71.307,93.881C70.333,96.695 70.359,100.1 69.874,102.7Z" style="fill:white;"/>
                </g>
                <g transform="matrix(0.948173,-0.00135914,0.16461,0.469681,-346.412,-74.2847)">
                    <path d="M409.494,453.921L395.016,497.562" style="fill:none;stroke:rgb(13,0,255);stroke-width:7.06px;"/>
                </g>
                <g transform="matrix(0.948173,-0.00135914,0.16461,0.469681,-393.395,-84.5431)">
                    <path d="M409.494,453.921L395.016,497.562" style="fill:none;stroke:rgb(13,0,255);stroke-width:7.06px;"/>
                </g>
                <g transform="matrix(0.948173,-0.00135914,0.16461,0.469681,-359.814,-84.5431)">
                    <path d="M409.494,453.921L395.016,497.562" style="fill:none;stroke:rgb(13,0,255);stroke-width:7.06px;"/>
                </g>
                <g transform="matrix(0.948173,-0.00135914,0.16461,0.469681,-287.011,-94.8014)">
                    <path d="M409.494,453.921L395.016,497.562" style="fill:none;stroke:rgb(13,0,255);stroke-width:7.06px;"/>
                </g>
                <g transform="matrix(0.925762,0.0688958,0.232158,0.257923,-291.475,-27.4493)">
                    <path d="M409.494,453.921L395.016,497.562" style="fill:none;stroke:rgb(13,0,255);stroke-width:7.35px;"/>
                </g>
                <g transform="matrix(0.616558,0,0,0.677448,-19.5336,28.2019)">
                    <path d="M164.003,153.223C166.22,153.154 173.953,153.125 176.134,153.205C176.492,153.218 176.825,153.458 177.086,153.703C177.364,153.964 177.672,154.417 177.8,154.77C177.919,155.101 177.851,155.825 177.851,155.825L171.476,165.702C171.476,165.702 174.366,165.728 175.144,165.813C175.503,165.853 175.871,165.986 176.15,166.216C176.437,166.453 176.757,166.838 176.872,167.239C176.99,167.648 177.084,168.249 176.855,168.665C175.887,170.426 171.065,177.804 171.065,177.804C171.065,177.804 173.583,177.749 174.295,177.84C174.68,177.889 175.057,178.085 175.341,178.349C175.629,178.618 175.954,179.026 176.026,179.453C176.103,179.91 176.17,180.679 175.802,181.089C172.653,184.6 160.462,197.216 157.132,200.521C156.808,200.842 156.243,201.009 155.822,200.92C155.4,200.831 154.825,200.312 154.602,199.985C154.407,199.701 154.355,199.278 154.483,198.958C155.431,196.573 160.289,185.677 160.289,185.677C160.289,185.677 158.612,185.583 157.964,185.525C157.442,185.477 156.823,185.546 156.404,185.325C155.984,185.103 155.596,184.62 155.446,184.195C155.296,183.77 155.299,183.201 155.503,182.772C156.217,181.269 159.729,175.174 159.729,175.174C159.729,175.174 156.758,175.128 155.77,175.085C155.112,175.057 154.303,175.144 153.802,174.916C153.32,174.697 152.923,174.151 152.761,173.718C152.599,173.286 152.629,172.743 152.83,172.322C154.356,169.123 160.252,157.639 161.919,154.522C162.121,154.144 162.487,153.835 162.834,153.619C163.181,153.402 163.592,153.236 164.003,153.223Z" style="fill:rgb(255,230,0);"/>
                </g>
                <g transform="matrix(0.616558,0,0,0.677448,41.2613,22.7444)">
                    <path d="M164.003,153.223C166.22,153.154 173.953,153.125 176.134,153.205C176.492,153.218 176.825,153.458 177.086,153.703C177.364,153.964 177.672,154.417 177.8,154.77C177.919,155.101 177.851,155.825 177.851,155.825L171.476,165.702C171.476,165.702 174.366,165.728 175.144,165.813C175.503,165.853 175.871,165.986 176.15,166.216C176.437,166.453 176.757,166.838 176.872,167.239C176.99,167.648 177.084,168.249 176.855,168.665C175.887,170.426 171.065,177.804 171.065,177.804C171.065,177.804 173.583,177.749 174.295,177.84C174.68,177.889 175.057,178.085 175.341,178.349C175.629,178.618 175.954,179.026 176.026,179.453C176.103,179.91 176.17,180.679 175.802,181.089C172.653,184.6 160.462,197.216 157.132,200.521C156.808,200.842 156.243,201.009 155.822,200.92C155.4,200.831 154.825,200.312 154.602,199.985C154.407,199.701 154.355,199.278 154.483,198.958C155.431,196.573 160.289,185.677 160.289,185.677C160.289,185.677 158.612,185.583 157.964,185.525C157.442,185.477 156.823,185.546 156.404,185.325C155.984,185.103 155.596,184.62 155.446,184.195C155.296,183.77 155.299,183.201 155.503,182.772C156.217,181.269 159.729,175.174 159.729,175.174C159.729,175.174 156.758,175.128 155.77,175.085C155.112,175.057 154.303,175.144 153.802,174.916C153.32,174.697 152.923,174.151 152.761,173.718C152.599,173.286 152.629,172.743 152.83,172.322C154.356,169.123 160.252,157.639 161.919,154.522C162.121,154.144 162.487,153.835 162.834,153.619C163.181,153.402 163.592,153.236 164.003,153.223Z" style="fill:rgb(255,230,0);"/>
                </g>
            </g>
        </g>
    </g>
</svg>
